X: 48
T:Burnt Old Man [in D], The
M:6/8
L:1/8
R:Double Jig
K:D
DFB AFD|FGF F2E|DFB AFD|EFE EFE|!
DFB AFD|DFA d2e|fed BdB|AFD E2D:|!
|:dcd def|ABA AFA|e2e ede|fed B2A|!
dcd def|ABA d2e|fed BdB|AFD E2D:|]!
